X:1
T:Gibraltar, 87.87 D
T:Gibraltar, 87.87 D
T:William James Kirkpatrick, 1883
T:Public Domain Courtesy of the Cyber Hymnal™
C:William James Kirkpatrick, 1883
Z:Public Domain
Z:Courtesy of the Cyber Hymnal™
%%score ( 1 2 ) ( 3 4 )
L:1/8
Q:1/4=110
M:4/4
K:F
V:1 treble 
V:2 treble 
V:3 bass 
V:4 bass 
V:1
 [FA]3 [FA] [FB]2 [FA]2 | [DG]2 D2 [DG]2 [DF]2 | [CE]3 [CF] [CG]2 C2 | C2 [CF]2 [FA]4 | %4
 [FA]3 [FA] [FB]2 [FA]2 | [DG]2 D2 [DB]2 [DG]2 | [CF]2 [A,C]2 [CF]2 [FA]2 | A3 z G [CF]4 | %8
 [EG]3 [FA] [EG]2 C2 | C2 [CF]2 [FB]2 [FA]2 | [FA]3 [FA] [^Fd]2 [Fc]2 | [Fc]2 [F=B]2 [E_B]4 | %12
 [FA]3 [GB] [Ac]2 F2 | [Ff]3 [Fc] [Fe]2 [Fd]2 | [Fc]2 F2 [EB]2 [FA]2 | A3 z G [CF]4 |] %16
V:2
 x8 | x2 D2 x4 | x6 C2 | C2 x6 | x8 | x2 D2 x4 | x8 | F2 E2 x5 | x6 C2 | C2 x6 | x8 | x8 | x6 F2 | %13
 x8 | x2 F2 x4 | F2 F2 x5 |] %16
V:3
 [F,C]3 [F,C] [F,D]2 [F,C]2 | [B,,B,]2 [B,,B,]2 [B,,G,]2 [=B,,G,]2 | %2
 [C,G,]3 [C,A,] [C,B,]2 [C,B,]2 | [F,A,]2 [F,A,]2 [F,C]4 | [F,C]3 [F,C] [F,D]2 [F,C]2 | %5
 [B,,B,]2 [B,,B,]2 [G,,B,]2 [B,,B,]2 | [C,A,]2 [C,F,]2 [C,A,]2 [C,C]2 | %7
 [C,C]2 [C,B,]2 [F,,F,A,]4 x | [C,C]3 [C,C] [C,C]2 [C,B,]2 | [F,A,]2 [F,A,]2 [F,D]2 [F,C]2 | %10
 [F,C]3 [F,A,] [D,A,]2 [D,D]2 | [G,D]2 [G,D]2 [C,C]4 | [F,C]3 [F,C] [F,C]2 [F,A,]2 | %13
 [A,C]3 [A,C] [B,C]2 B,2 | [A,C]2 [A,C]2 [G,C]2 [F,C]2 | [C,C]2 [C,B,]2 [F,A,]4 x |] %16
V:4
 x8 | x8 | x8 | x8 | x8 | x8 | x8 | x9 | x8 | x8 | x8 | x8 | x8 | x6 B,2 | x8 | x9 |] %16

